X: 1
T: Magpie's Nest, The
M: 4/4
L: 1/8
R: reel
K: Dmaj
dA~A2 BAFA|dAFA GFED|FA~A2 ABAF|ABde feec|
dA~A2 BAFA|dAFA GFED|~F3A ABAF|ABde fedf||
~a3f gfeg|fedf ecAe|abaf gfed|ABde feef|
~a3f gfeg|fedf ecAF|G2BG F2AF|ABde fedc||
